context/brand-context/default/img/icons/institution.svg

<svg id="i-institution" viewBox="0 0 18 18" xmlns="http://www.w3.org/2000/svg"><path d="m7 16.9998189v-2.0003623h4v2.0003623h2v-3.0005434h-8v3.0005434zm-3-10.00181122h-1.52632364c-.27614237 0-.5-.22389817-.5-.50009056 0-.13995446.05863589-.27350497.16166338-.36820841l1.23156713-1.13206327h-2.36690687v12.00217346h3v-2.0003623h-3v-1.0001811h3v-1.0001811h1v-4.00072448h-1zm10 0v2.00036224h-1v4.00072448h1v1.0001811h3v1.0001811h-3v2.0003623h3v-12.00217346h-2.3695309l1.2315671 1.13206327c.2033191.186892.2166633.50325042.0298051.70660631-.0946863.10304615-.2282126.16169266-.3681417.16169266zm3-3.00054336c.5522847 0 1 .44779634 1 1.00018112v13.00235456h-18v-13.00235456c0-.55238478.44771525-1.00018112 1-1.00018112h3.45499992l4.20535144-3.86558216c.19129876-.17584288.48537447-.17584288.67667324 0l4.2053514 3.86558216zm-4 3.00054336h-8v1.00018112h8zm-2 6.00108672h1v-4.00072448h-1zm-1 0v-4.00072448h-2v4.00072448zm-3 0v-4.00072448h-1v4.00072448zm8-4.00072448c.5522847 0 1 .44779634 1 1.00018112v2.00036226h-2v-2.00036226c0-.55238478.4477153-1.00018112 1-1.00018112zm-12 0c.55228475 0 1 .44779634 1 1.00018112v2.00036226h-2v-2.00036226c0-.55238478.44771525-1.00018112 1-1.00018112zm5.99868798-7.81907007-5.24205601 4.81852671h10.48411203zm.00131202 3.81834559c-.55228475 0-1-.44779634-1-1.00018112s.44771525-1.00018112 1-1.00018112 1 .44779634 1 1.00018112-.44771525 1.00018112-1 1.00018112zm-1 11.00199236v1.0001811h2v-1.0001811z" fill="currentColor" fill-rule="evenodd"/></svg>

<svg id="i-institution" viewBox="0 0 18 18" xmlns="http://www.w3.org/2000/svg"><path d="M7 17v-2h4v2h2v-3H5v3zM4 6.998H2.474a.5.5 0 0 1-.339-.868l1.232-1.132H1V17h3v-2H1v-1h3v-1h1V8.997H4zm10 0v2h-1V13h1v1h3v1h-3v2h3V4.999h-2.37l1.232 1.132a.5.5 0 0 1-.338.868zm3-3a1 1 0 0 1 1 1V18H0V4.998a1 1 0 0 1 1-1h3.455L8.66.131a.5.5 0 0 1 .677 0l4.205 3.865zm-4 3H5v1h8zm-2 6.001h1V9h-1zm-1 0V9H8v4zm-3 0V9H6v4zm8-4a1 1 0 0 1 1 1v2h-2v-2a1 1 0 0 1 1-1zm-12 0a1 1 0 0 1 1 1v2H2v-2a1 1 0 0 1 1-1zm5.999-7.82L3.757 5.998H14.24zM9 4.998a1 1 0 1 1 0-2 1 1 0 0 1 0 2zM8 16v1h2v-1z" fill="currentColor" fill-rule="evenodd"/></svg>
